X:27
%%etbk:tnset id:311,pos:2,rep:3x,ant:
%%etbk:wsite http://www.thesession.org/tunes/display/2999
%%etbk:pldat 2016-09-17T14:40,2016-09-16T16:34,2015-01-25T16:42,2014-12-16T17:24,2014-05-09T18:33,2014-04-27T13:14,2014-04-12T15:41,2014-04-07T19:40,2013-12-11T16:18,2013-11-18T18:29,2013-11-17T15:19,2013-08-28T15:48,2013-05-06T18:23,2013-05-01T15:54
T: Clogger's Quilt, The
Z: Piano Box Version by Martin Fleischmann
H: Created 2013-02-19 /  Last Modified 2014-12-16
M: 4/4
L: 1/8
R: reel
K:Gmaj
!3!e!2!ddd !1!B!2!GGG | !1!E!3!AAG !3!A2!2!G!1!E | !1!D!2!GGG !1!D!2!G!4!B!2!G | !3!AAGA !4!B!2!GG2 |
!4![d3G]!3!^c d3!2!B | !1!A!3!B!1!G!3!B !2!AA!1!G!2!E | !1!D!2!G!4!B!2!G DGBG | !3!AAGA !4!B!2!GG2 |
!2!B!4!ddB !4!d2!2!B!4!d | !2!e!5!aag ag!2!e!3!f | !4!g!3!g!4!ge !1!d2!2!B!1!d | !3!ggga !5!b!3!gg2 |
!4!g3e !1!d2!2!B!1!d | !2!e!5!aag agef | !4!ggge !1!d2!2!B!1!d | !3!ggga !5!b!3!g!5!g2 ||


